woof-CE/woof-code/rootfs-skeleton/usr/share/pixmaps/puppy/puppy_increase.svg

<svg version="1.2" xmlns="http://www.w3.org/2000/svg" viewBox="0 0 100 100" width="100" height="100"><style>.a{fill:#4cbb4f;stroke:#004100;stroke-width:2}</style><path class="a" d="m2.1 98l21.9-2-6-5 10-8-12-11-5 7-6-6zm95.9 0l-3-22-5 6-7-9-11 12 8 5-6 6zm0-96l-22 2 6 5.5-10 7.5 12 11 5-7 6 6zm-96 0l2 22 6-6 6 9 11-12-8-5 6-6z"/></svg>

<?xml version="1.0" encoding="UTF-8"?>
<svg xmlns="http://www.w3.org/2000/svg" version="1.1" height="100" width="100">

  <path style="fill:#4CBB4F;stroke:#004100;stroke-width:2" d="M 2.1,98 24,96 18,91 28,83 16,72 11,79 5,73 z m 95.9,0 -3,-22 -5,6 -7,-9 -11,12 8,5 -6,6 z M 98,2 76,4 82,9.5 72,17 l 12,11 5,-7 6,6 z m -96,0 2,22 6,-6 6,9 11,-12 -8,-5 6,-6 z"/>

  <path style="fill:none;stroke:#222222;stroke-width:3;stroke-linecap:round;" d="m 43,73 c 1,5 12,7 17,2 3,-4 3,-8 3,-8 0,0 3,5 10,5 10,0 10,-11 10,-11"/>
  <g style="fill:#222222;stroke:none;">
    <path d="m 48,57 20,-6 c 2,-1 4,-1 3,3 l -7,13 c -1,2 -2,2 -3,0 L 48,60 c -3,-1 0,-3 0,-3 z M 25,36 c -8,0 -15,7 -15,16 0,8 6,16 15,16 10,0 17,-7 17,-16 l -4,0 c 0,3 -3,7 -8,7 -5,0 -7,-4 -7,-8 0,-4 4,-8 7,-8 5,0 8,4 8,8 l 0,1 4,0 C 42,43 36,36 25,36 z"/>
    <ellipse cx="77" cy="38" rx="9" ry="9"/>
  </g>

</svg>
